X:1
T:Title
%%score { ( 1 3 ) | ( 2 4 ) }
L:1/8
M:4/4
K:Db
V:1 treble nm="Grand Piano"
V:3 treble 
V:2 bass 
V:4 bass 
V:1
 z4 z[Q:1/4=100] [FA][GB][FA] | [Fd]4- [Fd]FEF | G4- G[EG][=DF][EG] | [Ac]4- [Ac][GB][FA][CE] | %4
 [DF]4- [DF][FA][_F=G][=FA] | [Fd]4- [Fd]FGA | B4- BBBB | [=Ge]4- [Ge][FGd][EGc][DGB] | %8
[M:17/16] A-[EA-][FA-][FA-][GA]3/2AAA |[M:4/4] [GA]4- [GA]AAA | [Ad]4- [Ad]DE_F | F4- FAAA | %12
[M:5/8] [FA]-[FA]- [FA]3 |] %13
V:2
 z4 z [D,D][D,D][D,D] | [D,A,]4- [D,A,][A,D][G,A,C][F,A,D] | %2
 [E,A,C]4- [E,A,C][A,,A,][A,,A,][A,,A,] | [A,,A,]4- [A,,A,][A,,A,][A,,A,][A,,A,] | %4
 [D,A,]4- [D,A,][D,D][D,D][D,D] | [D,A,]4- [D,A,][D,A,D][E,A,C][F,A,D] | %6
 [G,D]4- [G,D][G,DG][G,DG][G,DG] | [E,D]4- [E,D]D,E,E, |[M:17/16] z CDDE3/2[A,F][G,A,E][F,A,D] | %9
[M:4/4] [E,C]4- [E,C][K:treble][A,EG][A,DF][K:bass][G,CE] | [F,D]4- [F,D][F,A,][G,B,D][G,B,D] | %11
 [A,D]4- [A,D][A,CE][A,DF][A,EG] |[M:5/8][K:bass] [D,D]-[D,D]- [D,D]3 |] %13
V:3
 x8 | x8 | x8 | x8 | x8 | x8 | x8 | x8 |[M:17/16] .C3/2 z/ z/ z/ z/ z/ z/ z/ z/ z/ z/ z/ z/ z | %9
[M:4/4] x8 | x8 | x8 |[M:5/8] x5 |] %13
V:4
 x8 | x8 | x8 | x8 | x8 | x8 | x8 | x8 | %8
[M:17/16] A,/-A,/-A,/-A,/-A,/-A,/-A,/-A,-<A, z/ z/ z/ z/ z |[M:4/4] x5[K:treble] x2[K:bass] x | %10
 x8 | x8 |[M:5/8][K:bass] x5 |] %13

